X:1
T:Marsch ur A. A. Anderbergs notbok
R:Marsch
C:Anderberg
O:Torna Hällestad, Skåne
M:2/4
L:1/16
K:G
D2 | G2GG G2GG | G2GD G2A2 | B2cB A2BA | G4 G2G2 | GFFE F2G2 | A3B A2G2 | F2GF E2FE | D6 D2 | 
BAAG A2B2 | c4 z2c2 | B2BG d2B2 | A4 z2D2 | c2cc ccc2 | BBB2 c2B2 | A4 d4 | G3A G2F2 | E4 E4 | 
E3G F2G2 | D4 D4 | D4 z2D2 | GGGG G2B2 | d3c B2A2 | G4 d3d |1 G2G2 A2 :|2 G2G2 G2 |]

